svg/down-shield.svg

<?xml version="1.0" encoding="UTF-8"?>
<svg xmlns="http://www.w3.org/2000/svg" xmlns:xlink="http://www.w3.org/1999/xlink" width="32" height="32" viewBox="0 0 32 32">
<path fill-rule="nonzero" fill="rgb(0%, 0%, 0%)" fill-opacity="1" d="M 16.011719 30.851562 L 15.746094 30.726562 C 15.613281 30.667969 2.667969 24.476562 2.667969 6.015625 L 2.667969 5.527344 L 3.144531 5.421875 C 7.628906 4.4375 10.277344 3.042969 12.210938 2.023438 C 13.714844 1.238281 14.800781 0.667969 16 0.667969 C 17.199219 0.667969 18.285156 1.238281 19.789062 2.023438 C 21.722656 3.042969 24.371094 4.4375 28.855469 5.421875 L 29.332031 5.527344 L 29.332031 6.015625 C 29.332031 23.863281 16.40625 30.648438 16.273438 30.71875 Z M 16.011719 30.851562 "/>
<path fill-rule="nonzero" fill="rgb(100%, 100%, 100%)" fill-opacity="1" d="M 16.316406 6.464844 C 11.792969 6.464844 8.128906 10.195312 8.128906 14.796875 C 8.128906 19.398438 11.792969 23.132812 16.316406 23.132812 C 20.839844 23.132812 24.507812 19.398438 24.507812 14.796875 C 24.507812 10.195312 20.839844 6.464844 16.316406 6.464844 "/>
<path fill-rule="nonzero" fill="rgb(0%, 0%, 0%)" fill-opacity="1" d="M 16.398438 22.496094 C 20.609375 22.496094 24.035156 19.070312 24.035156 14.859375 C 24.035156 10.648438 20.609375 7.222656 16.398438 7.222656 C 12.1875 7.222656 8.761719 10.648438 8.761719 14.859375 C 8.761719 19.070312 12.1875 22.496094 16.398438 22.496094 M 12.921875 16.328125 C 12.972656 16.210938 13.089844 16.132812 13.21875 16.132812 L 14.171875 16.132812 C 14.257812 16.132812 14.339844 16.164062 14.398438 16.226562 L 15.761719 17.589844 L 15.761719 10.085938 C 15.761719 9.910156 15.90625 9.769531 16.082031 9.769531 L 16.714844 9.769531 C 16.894531 9.769531 17.035156 9.910156 17.035156 10.085938 L 17.035156 17.589844 L 18.402344 16.226562 C 18.460938 16.164062 18.539062 16.132812 18.625 16.132812 L 19.578125 16.132812 C 19.707031 16.128906 19.828125 16.207031 19.875 16.328125 C 19.925781 16.445312 19.898438 16.582031 19.808594 16.675781 L 16.625 19.855469 C 16.566406 19.917969 16.484375 19.953125 16.398438 19.949219 C 16.3125 19.949219 16.234375 19.914062 16.175781 19.855469 L 12.992188 16.675781 C 12.902344 16.582031 12.875 16.449219 12.921875 16.328125 "/>
</svg>

<svg role="img" viewBox="0 0 32 32" height="32" width="32" xmlns="http://www.w3.org/2000/svg"><path d="m16.012 30.852-.266-.125c-.133-.059-13.078-6.25-13.078-24.711v-.489l.477-.105c4.484-.984 7.132-2.379 9.066-3.399C13.715 1.238 14.8.668 16 .668c1.2 0 2.285.57 3.79 1.355 1.933 1.02 4.581 2.415 9.065 3.399l.477.105v.489c0 17.847-12.926 24.632-13.059 24.703Zm0 0"/><path d="M16.316 6.465c-4.523 0-8.187 3.73-8.187 8.332 0 4.601 3.664 8.336 8.187 8.336 4.524 0 8.192-3.735 8.192-8.336 0-4.602-3.668-8.332-8.192-8.332" fill="rgb(100%, 100%, 100%)"/><path d="M16.398 22.496c4.211 0 7.637-3.426 7.637-7.637 0-4.21-3.426-7.636-7.637-7.636-4.21 0-7.636 3.425-7.636 7.636s3.425 7.637 7.636 7.637m-3.476-6.168a.325.325 0 0 1 .297-.195h.953c.086 0 .168.031.226.094l1.364 1.363v-7.504c0-.176.144-.316.32-.316h.633c.18 0 .32.14.32.316v7.504l1.367-1.363a.298.298 0 0 1 .223-.094h.953a.31.31 0 0 1 .297.195.32.32 0 0 1-.066.348l-3.184 3.18a.293.293 0 0 1-.227.093.313.313 0 0 1-.222-.094l-3.184-3.18a.327.327 0 0 1-.07-.347"/></svg>
